X: 444
T: Tell Me Dear Eveleen
N:"Moderate" "collected by F.O'Neill"
N:Irish title: innis do'm a ei.blin .dileas
B:O'Neill's 444
Z:Transcribed by henrik.norbeck@mailbox.swipnet.se
M:C
L:1/8
K:C
c2 c>c B2 B>B | (Ac)BA ^G E2 z | A2 A>A ^GE z E | A2 B>B c2 z B |
c2 (ec) B2 (dB) | AcBA ^G E2 z | A2 A2 cBA^G | A2 Bd c3 z ||
ABcd e2 z2 | f2 ed e2 A2 | A2 A2 f3 e | {e}d2 {d}c2 B4 |
{A}e4 A3 c | BcBA ^G E3 | A3 A (cB)A^G | A2 Bd c4 ||


